docs/img/distracted.svg

<svg width="163" height="163" viewBox="0 0 163 163" fill="none" xmlns="http://www.w3.org/2000/svg">
<path fill-rule="evenodd" clip-rule="evenodd" d="M55.4987 119.308L42.166 132.641C39.5198 135.287 35.4945 135.59 33.219 133.315L23.3064 123.402C21.0309 121.127 21.3332 117.1 23.9793 114.454L37.3121 101.121C39.9582 98.4753 43.9845 98.1731 46.26 100.449L56.1726 110.361C58.4481 112.637 58.1449 116.662 55.4987 119.308" fill="#2B4460"/>
<path fill-rule="evenodd" clip-rule="evenodd" d="M37.3137 101.121L24.3187 114.116C24.6603 114.721 25.0748 115.289 25.5815 115.796L40.8258 131.04C41.3325 131.547 41.9006 131.961 42.5053 132.303L55.5003 119.308C58.1465 116.662 58.4496 112.636 56.1733 110.36L46.2607 100.448C43.9861 98.173 39.9598 98.4752 37.3137 101.121" fill="#2B4460"/>
<mask id="mask0_0_538" style="mask-type:alpha" maskUnits="userSpaceOnUse" x="55" y="106" width="40" height="40">
<path fill-rule="evenodd" clip-rule="evenodd" d="M94.5496 130.738L79.7729 145.515L55.7852 121.527L70.5619 106.75L94.5496 130.738V130.738Z" fill="white"/>
</mask>
<g mask="url(#mask0_0_538)">
<path fill-rule="evenodd" clip-rule="evenodd" d="M73.4653 109.654L91.6465 127.835C93.2497 129.438 93.0379 132.25 91.1735 134.114L89.7616 135.526C88.2843 137.004 86.1535 137.484 84.5003 136.713L59.7114 125.141C57.1616 123.95 56.8861 120.426 59.164 118.148L67.1855 110.126C69.0499 108.262 71.862 108.05 73.4653 109.654" fill="#2B4460"/>
</g>
<path fill-rule="evenodd" clip-rule="evenodd" d="M67.1855 110.126L59.164 118.148C56.8861 120.426 57.1616 123.95 59.7114 125.141L62.7773 126.572L76.5804 112.769L73.4653 109.654C71.862 108.05 69.0499 108.262 67.1855 110.126" fill="#263F56"/>
<path fill-rule="evenodd" clip-rule="evenodd" d="M104.45 47.3968C107.84 50.7869 107.392 56.732 103.45 60.6744C99.5063 64.6178 93.5612 65.0656 90.171 61.6754C86.7809 58.2853 87.2286 52.3402 91.1721 48.3968C95.1145 44.4544 101.06 44.0067 104.45 47.3968" fill="#3EB5ED"/>
<path fill-rule="evenodd" clip-rule="evenodd" d="M93.3239 46.7068C92.565 47.1726 91.8391 47.7303 91.172 48.3973C87.2296 52.3397 86.781 58.2839 90.172 61.6749C93.5622 65.0651 99.5072 64.6174 103.45 60.675C104.117 60.0079 104.674 59.282 105.14 58.523L93.3239 46.7068Z" fill="#2B4460"/>
<path fill-rule="evenodd" clip-rule="evenodd" d="M115.638 78.5027L75.2686 102.84L53.6113 81.1826L73.5233 36.3878L115.638 78.5027Z" fill="#1E90FD"/>
<path fill-rule="evenodd" clip-rule="evenodd" d="M75.2686 102.839L83.8551 97.6638C84.2728 94.9083 83.5552 92.1642 81.628 90.2371L66.3837 74.9927C64.0358 72.6449 60.4759 72.0899 57.157 73.2048L53.6113 81.1821L75.2686 102.839Z" fill="white"/>
<path fill-rule="evenodd" clip-rule="evenodd" d="M77.0633 107.524L56.5602 128.028C52.4916 132.096 46.2989 132.564 42.8001 129.065L27.5558 113.82C24.058 110.323 24.5253 104.13 28.594 100.061L49.0971 79.5582C53.1657 75.4895 59.3574 75.0232 62.8561 78.5219L78.0996 93.7654C81.5983 97.2641 81.132 103.456 77.0633 107.524" fill="#1E90FD"/>
<path fill-rule="evenodd" clip-rule="evenodd" d="M49.9199 116.428C51.2915 117.799 51.1104 120.204 49.5164 121.798C47.9214 123.393 45.5174 123.574 44.1458 122.202C42.7741 120.83 42.9551 118.427 44.5502 116.832C46.1442 115.238 48.5483 115.056 49.9199 116.428" fill="#08A09C"/>
<path fill-rule="evenodd" clip-rule="evenodd" d="M50.1819 116.69C51.4078 117.916 51.11 120.204 49.516 121.798C47.9209 123.394 45.6337 123.69 44.4077 122.464C43.1809 121.237 43.4786 118.951 45.0736 117.356C46.6676 115.762 48.955 115.463 50.1819 116.69" fill="white"/>
<path fill-rule="evenodd" clip-rule="evenodd" d="M60.5791 105.769C61.9507 107.14 61.7696 109.545 60.1756 111.139C58.5805 112.734 56.1766 112.914 54.8049 111.543C53.4333 110.171 53.6143 107.768 55.2093 106.173C56.8033 104.579 59.2075 104.397 60.5791 105.769" fill="#08A09C"/>
<path fill-rule="evenodd" clip-rule="evenodd" d="M60.8411 106.031C62.067 107.257 61.7692 109.545 60.1752 111.139C58.5801 112.734 56.2928 113.031 55.0669 111.805C53.84 110.578 54.1377 108.292 55.7328 106.697C57.3268 105.103 59.6142 104.804 60.8411 106.031" fill="white"/>
<path fill-rule="evenodd" clip-rule="evenodd" d="M71.2384 95.1098C72.61 96.4814 72.4288 98.8865 70.8348 100.48C69.2398 102.076 66.8348 102.257 65.4631 100.885C64.0915 99.5134 64.2736 97.1093 65.8686 95.5142C67.4626 93.9202 69.8667 93.7382 71.2384 95.1098" fill="#08A09C"/>
<path fill-rule="evenodd" clip-rule="evenodd" d="M71.5003 95.3722C72.7263 96.5982 72.4284 98.8865 70.8344 100.481C69.2394 102.076 66.9511 102.373 65.7251 101.147C64.4982 99.9206 64.797 97.6332 66.392 96.0381C67.986 94.4441 70.2735 94.1454 71.5003 95.3722" fill="white"/>
<path fill-rule="evenodd" clip-rule="evenodd" d="M63.029 89.2403L38.2763 113.993C37.6324 114.637 36.6539 114.711 36.1002 114.157L34.05 112.107C33.4972 111.554 33.57 110.575 34.2139 109.931L58.9667 85.1779C59.6095 84.535 60.5899 84.4612 61.1427 85.014L63.1929 87.0642C63.7466 87.6179 63.6719 88.5974 63.029 89.2403" fill="#3EB5ED"/>
<path fill-rule="evenodd" clip-rule="evenodd" d="M58.9667 85.1774L34.2139 109.93C33.57 110.574 33.4972 111.553 34.05 112.106L34.7938 112.85C34.24 112.296 34.3137 111.318 34.9576 110.674L59.7104 85.9211C60.3532 85.2782 61.3327 85.2035 61.8865 85.7572L61.1427 85.0135C60.5899 84.4607 59.6095 84.5345 58.9667 85.1774" fill="#3EB5ED"/>
<path fill-rule="evenodd" clip-rule="evenodd" d="M118.144 79.2286V79.2286C117.078 80.2944 115.474 80.4152 114.557 79.4987L72.7238 37.6652C71.8073 36.7487 71.9272 35.1431 72.993 34.0773C74.0589 33.0115 75.6655 32.8905 76.582 33.807L118.416 75.6405C119.332 76.557 119.21 78.1627 118.144 79.2286" fill="#2B4460"/>
<path fill-rule="evenodd" clip-rule="evenodd" d="M87.6397 38.4249L89.6377 29.2449L85.0236 31.5518L88.9174 11.8228L89.7278 25.1412L96.1238 22.737L87.6397 38.4249Z" fill="#3EB5ED"/>
<path fill-rule="evenodd" clip-rule="evenodd" d="M104.876 44.5513L110.827 36.7217L105.983 36.7528L118.446 19.735L112.834 32.8424L119.174 33.5577L104.876 44.5513Z" fill="#3EB5ED"/>
<path fill-rule="evenodd" clip-rule="evenodd" d="M112.604 62.8402L121.638 59.7616L118.302 56.7206L137.614 49.7323L125.469 57.6412L129.358 62.2818L112.604 62.8402Z" fill="#3EB5ED"/>
</svg>

<svg width="163" height="163" viewBox="0 0 163 163" fill="none" xmlns="http://www.w3.org/2000/svg"><path fill-rule="evenodd" clip-rule="evenodd" d="M55.499 119.308l-13.333 13.333c-2.646 2.646-6.671 2.949-8.947.674l-9.913-9.913c-2.275-2.275-1.973-6.302.673-8.948l13.333-13.333c2.646-2.646 6.672-2.948 8.948-.672l9.913 9.912c2.275 2.276 1.972 6.301-.674 8.947" fill="#2B4460"/><path fill-rule="evenodd" clip-rule="evenodd" d="M37.314 101.121l-12.995 12.995a7.75 7.75 0 001.262 1.68l15.245 15.244a7.751 7.751 0 001.68 1.263L55.5 119.308c2.647-2.646 2.95-6.672.673-8.948l-9.912-9.912c-2.275-2.275-6.301-1.973-8.947.673" fill="#2B4460"/><mask id="mask0_0_538" style="mask-type:alpha" maskUnits="userSpaceOnUse" x="55" y="106" width="40" height="40"><path fill-rule="evenodd" clip-rule="evenodd" d="M94.55 130.738l-14.777 14.777-23.988-23.988 14.777-14.777 23.988 23.988z" fill="#fff"/></mask><g mask="url(#mask0_0_538)"><path fill-rule="evenodd" clip-rule="evenodd" d="M73.465 109.654l18.181 18.181c1.604 1.603 1.392 4.415-.472 6.279l-1.412 1.412c-1.478 1.478-3.609 1.958-5.262 1.187l-24.789-11.572c-2.55-1.191-2.825-4.715-.547-6.993l8.022-8.022c1.864-1.864 4.676-2.076 6.28-.472" fill="#2B4460"/></g><path fill-rule="evenodd" clip-rule="evenodd" d="M67.186 110.126l-8.022 8.022c-2.278 2.278-2.002 5.802.547 6.993l3.066 1.431 13.803-13.803-3.115-3.115c-1.603-1.604-4.415-1.392-6.28.472" fill="#263F56"/><path fill-rule="evenodd" clip-rule="evenodd" d="M104.45 47.397c3.39 3.39 2.942 9.335-1 13.277-3.944 3.944-9.889 4.392-13.279 1.001-3.39-3.39-2.942-9.335 1.001-13.278 3.943-3.943 9.888-4.39 13.278-1" fill="#3EB5ED"/><path fill-rule="evenodd" clip-rule="evenodd" d="M93.324 46.707a11.652 11.652 0 00-2.152 1.69c-3.942 3.943-4.391 9.887-1 13.278 3.39 3.39 9.335 2.942 13.278-1a11.655 11.655 0 001.69-2.152L93.324 46.707z" fill="#2B4460"/><path fill-rule="evenodd" clip-rule="evenodd" d="M115.638 78.503l-40.37 24.337-21.657-21.657 19.912-44.795 42.115 42.115z" fill="#1E90FD"/><path fill-rule="evenodd" clip-rule="evenodd" d="M75.269 102.839l8.586-5.175c.418-2.756-.3-5.5-2.227-7.427L66.384 74.993c-2.348-2.348-5.908-2.903-9.227-1.788l-3.546 7.977L75.27 102.84z" fill="#fff"/><path fill-rule="evenodd" clip-rule="evenodd" d="M77.063 107.524L56.56 128.028c-4.068 4.068-10.261 4.536-13.76 1.037L27.556 113.82c-3.498-3.497-3.03-9.69 1.038-13.759l20.503-20.503c4.069-4.069 10.26-4.535 13.76-1.036L78.1 93.765c3.498 3.5 3.032 9.691-1.037 13.759" fill="#1E90FD"/><path fill-rule="evenodd" clip-rule="evenodd" d="M49.92 116.428c1.371 1.371 1.19 3.776-.404 5.37-1.595 1.595-3.999 1.776-5.37.404-1.372-1.372-1.19-3.775.404-5.37 1.594-1.594 3.998-1.776 5.37-.404" fill="#08A09C"/><path fill-rule="evenodd" clip-rule="evenodd" d="M50.182 116.69c1.226 1.226.928 3.514-.666 5.108-1.595 1.596-3.882 1.892-5.108.666-1.227-1.227-.93-3.513.666-5.108 1.594-1.594 3.881-1.893 5.108-.666" fill="#fff"/><path fill-rule="evenodd" clip-rule="evenodd" d="M60.58 105.769c1.37 1.371 1.19 3.776-.404 5.37-1.596 1.595-4 1.775-5.371.404-1.372-1.372-1.19-3.775.404-5.37 1.594-1.594 3.998-1.776 5.37-.404" fill="#08A09C"/><path fill-rule="evenodd" clip-rule="evenodd" d="M60.841 106.031c1.226 1.226.928 3.514-.666 5.108-1.595 1.595-3.882 1.892-5.108.666-1.227-1.227-.93-3.513.666-5.108 1.594-1.594 3.881-1.893 5.108-.666" fill="#fff"/><path fill-rule="evenodd" clip-rule="evenodd" d="M71.238 95.11c1.372 1.371 1.19 3.776-.403 5.37-1.595 1.596-4 1.777-5.372.405-1.371-1.372-1.19-3.776.406-5.37 1.594-1.595 3.998-1.777 5.37-.405" fill="#08A09C"/><path fill-rule="evenodd" clip-rule="evenodd" d="M71.5 95.372c1.226 1.226.928 3.514-.666 5.109-1.595 1.595-3.883 1.892-5.109.666-1.227-1.226-.928-3.514.667-5.109 1.594-1.594 3.882-1.893 5.108-.666" fill="#fff"/><path fill-rule="evenodd" clip-rule="evenodd" d="M63.029 89.24l-24.753 24.753c-.644.644-1.622.718-2.176.164l-2.05-2.05c-.553-.553-.48-1.532.164-2.176l24.753-24.753c.642-.643 1.623-.717 2.176-.164l2.05 2.05c.554.554.479 1.533-.164 2.176" fill="#3EB5ED"/><path fill-rule="evenodd" clip-rule="evenodd" d="M58.967 85.177L34.214 109.93c-.644.644-.717 1.623-.164 2.176l.744.744c-.554-.554-.48-1.532.164-2.176L59.71 85.921c.643-.643 1.623-.718 2.176-.164l-.743-.744c-.553-.552-1.534-.479-2.176.164" fill="#3EB5ED"/><path fill-rule="evenodd" clip-rule="evenodd" d="M118.144 79.229c-1.066 1.065-2.67 1.186-3.587.27L72.724 37.665c-.917-.916-.797-2.522.269-3.588 1.066-1.066 2.672-1.186 3.589-.27l41.834 41.834c.916.916.794 2.522-.272 3.588" fill="#2B4460"/><path fill-rule="evenodd" clip-rule="evenodd" d="M87.64 38.425l1.998-9.18-4.614 2.307 3.893-19.73.81 13.32 6.397-2.405-8.484 15.688zm17.236 6.126l5.951-7.83-4.844.032 12.463-17.018-5.612 13.107 6.34.716-14.298 10.993zm7.728 18.289l9.034-3.078-3.336-3.041 19.312-6.989-12.145 7.91 3.889 4.64-16.754.558z" fill="#3EB5ED"/></svg>
